src/assets/logo/kafka.svg

<svg height="234" preserveAspectRatio="xMidYMid" viewBox="0 0 512 234" width="512" xmlns="http://www.w3.org/2000/svg"><g fill="#1a1919"><path d="m49.7634813 20.9795905c-2.582576-2.5926054-6.1655868-4.1897907-10.1598038-4.1897907-3.9841876 0-7.5396175 1.5971853-10.0895979 4.1897907h-.0651912c-2.5750539 2.575054-4.1722393 6.1680942-4.1722393 10.1372377 0 3.9917096 1.5971854 7.5621836 4.1722393 10.112164l.0651912.070206c2.5499804 2.5700392 6.1054103 4.1446583 10.0895979 4.1446583 3.994217 0 7.5772278-1.5746191 10.1598038-4.1446583l.0300882-.070206c2.5850834-2.5499804 4.1622099-6.1204544 4.1622099-10.112164 0-3.9691435-1.5771265-7.5621837-4.1622099-10.1372377zm-10.1598038 196.1253345c3.994217 0 7.5772278-1.627274 10.1598038-4.17224l.0300882-.07522c2.5850834-2.539951 4.1622099-6.132991 4.1622099-10.082076 0-3.99171-1.5771265-7.567198-4.1622099-10.154789h-.0300882c-2.582576-2.617679-6.1655868-4.19982-10.1598038-4.19982-3.9841876 0-7.5396175 1.582141-10.0895979 4.19982h-.0651912c-2.5750539 2.587591-4.1722393 6.163079-4.1722393 10.154789 0 3.949085 1.5971854 7.542125 4.1722393 10.082076l.0651912.07522c2.5499804 2.544966 6.1054103 4.17224 10.0895979 4.17224zm78.0614935-43.409843c3.547908-.932736 6.75983-3.209415 8.723089-6.654521l.263273-.503979c1.745119-3.262069 2.063553-7.033131 1.130817-10.380451-.940258-3.572981-3.242011-6.742278-6.679595-8.715567l-.203096-.135397c-3.349826-1.840399-7.161006-2.241576-10.666289-1.286273-3.562952.890111-6.764845 3.262069-8.715567 6.677087-1.9757963 3.394959-2.3870026 7.296404-1.44173 10.886937.975362 3.532863 3.259562 6.724727 6.677088 8.720582h.020058c3.425048 1.968274 7.296404 2.321811 10.891952 1.391582zm-63.3658839-71.429539c-3.761033-3.7510035-8.9512586-6.1029028-14.6956096-6.1029028-5.736829 0-10.9120104 2.3518993-14.6655214 6.1029028-3.7409741 3.745989-6.047741 8.913648-6.047741 14.657999s2.3067669 10.934577 6.047741 14.723191c3.753511 3.728437 8.9286924 6.05777 14.6655214 6.05777 5.744351 0 10.9345766-2.329333 14.6956096-6.05777 3.7510036-3.788614 6.0577705-8.97884 6.0577705-14.723191s-2.3067669-10.91201-6.0577705-14.657999zm-8.2642432-24.4191335c8.3394638 1.3740307 15.8264269 5.3682478 21.5507191 11.1326577h.042625c.91017.9076626 1.7952664 1.9080974 2.6201863 2.9060248l14.3044622-8.2742726c-1.9231415-5.8120497-2.0134063-11.8873716-.4663681-17.5865903 2.0384799-7.6298823 6.985492-14.4599182 14.4022491-18.7399738l.2407061-.1529486c7.3365214-4.1496731 15.6734784-5.0147107 23.1980514-2.9762308 7.62236 2.0434946 14.497529 7.0130729 18.777584 14.4172931v.0225662c4.259997 7.3641027 5.122527 15.8138901 3.091569 23.4212062-2.02845 7.6273749-6.993014 14.5050506-14.402249 18.7600326l-1.95323 1.153383h-.198081c-6.852602 3.26207-14.387204 3.77357-21.307505 1.950723-5.681667-1.504413-10.8919518-4.6787251-14.9739263-9.179428l-14.2844033 8.251706c1.6423178 4.34274 2.5499804 9.023972 2.5499804 13.970984 0 4.921939-.9076626 9.67087-2.5499804 14.036175l14.2844033 8.229141c4.0819745-4.570909 9.2922593-7.672508 14.9739263-9.181936 7.624867-2.083612 16.074655-1.198515 23.458816 3.106614l.47389.220647v.022566c7.133426 4.325188 11.922475 10.999768 13.928359 18.539386 2.030958 7.562183 1.168428 16.016985-3.091569 23.396132l-.258257.514008-.030089-.042625c-4.277548 7.113367-11.022334 11.932504-18.466672 13.970984-7.634897 2.013406-16.087192 1.153383-23.4613235-3.089062v-.057669c-7.4167571-4.287578-12.3637692-11.132658-14.4022491-18.747496-1.5470382-5.674145-1.4567734-11.749467.4663681-17.559009l-14.3044622-8.254214c-.8249199.997927-1.7100163 1.95323-2.6201863 2.860892l-.042625.045133c-5.7242922 5.744351-13.2112553 9.736061-21.5507191 11.064959v16.528486c5.9424321 1.241141 11.2630402 4.212357 15.4302647 8.382089l.0225662.042625c5.5863877 5.561314 9.0465381 13.309042 9.0465381 21.824021 0 8.489905-3.4601504 16.192501-9.0465381 21.781396l-.0225662.087757c-5.6265053 5.586388-13.3441451 9.046538-21.8616311 9.046538-8.4723537 0-16.2100522-3.46015-21.8240208-9.046538h-.0225662v-.087757c-5.5914024-5.588895-9.05907485-13.291491-9.05907485-21.781396 0-8.514979 3.46767245-16.262707 9.05907485-21.824021v-.042625h.0225662c4.1647172-4.169732 9.4953546-7.140948 15.4152205-8.382089v-16.528486c-8.3369564-1.328898-15.8113827-5.320608-21.5256455-11.064959l-.0601765-.045133c-7.13593329-7.161006-11.60404049-17.029957-11.60404049-27.964534 0-10.91201 4.4681072-20.7809607 11.60404049-27.9444748h.0601765c5.7142628-5.7644099 13.1886891-9.758627 21.5256455-11.1326577v-16.4582804c-5.9198659-1.2837659-11.2505033-4.254982-15.4152205-8.4021477h-.0225662v-.0451324c-5.5914024-5.6114613-9.05907485-13.3065348-9.05907485-21.8240208 0-8.4723537 3.46767245-16.2351258 9.05907485-21.82402085l.0225662-.0225662c5.6139686-5.60895388 13.3516671-9.06659688 21.8240208-9.06659688 8.517486 0 16.2351258 3.457643 21.8616311 9.06659688v.0225662h.0225662c5.5863877 5.58889505 9.0465381 13.35166715 9.0465381 21.82402085 0 8.517486-3.4601504 16.2125595-9.0465381 21.8240208l-.0225662.0451324c-4.1672245 4.1471657-9.4878326 7.1183818-15.4302647 8.4021477zm80.3532161-10.9772017-.12286-.1805295c-1.970781-3.3247532-5.12002-5.5412553-8.600229-6.4965577-3.595548-.9553024-7.466904-.5541255-10.91201 1.4216705h.020058c-3.437584 1.9507224-5.736829 5.1400784-6.697146 8.7155671-.9452726 3.5479078-.5340663 7.4694115 1.44173 10.8869369l.067698.0877574c1.978304 3.3723929 5.130049 5.6340274 8.647869 6.5441974 3.535371 1.0004348 7.474426.5766917 10.869385-1.3991043l.183037-.0877574c3.342305-1.9958548 5.568836-5.1450931 6.496558-8.6052435.94778-3.570474.569169-7.4719189-1.39409-10.8869369z"/><path d="m189.859453 71.7033889h15.961824v48.7229291l23.017522-25.4596863h19.138643l-27.789019 29.4965283 27.904358 37.389683h-18.276113l-23.995391-33.397973v33.397973h-15.961824zm76.659882 56.9946941c0 8.296839 5.967506 20.359725 20.344681 20.359725 8.896097 0 14.750772-4.6361 17.787179-10.711422 1.589663-2.94865 2.321811-6.100395 2.567532-9.380016.110323-3.174312-.488934-6.473991-1.837892-9.40509-2.798208-6.318535-9.008927-11.797107-18.634664-11.797107-12.907866 0-20.226836 10.465701-20.226836 20.823586zm56.533341 33.15476h-15.969346v-9.62323c-4.249968 7.782831-13.148572 11.68929-22.533603 11.68929-21.44541 0-33.989709-16.701494-33.989709-35.574357 0-21.069307 15.227169-35.4414677 33.989709-35.4414677 12.18324 0 19.612534 6.4564399 22.533603 11.8221807v-9.7586273h15.969346zm18.073017-54.577604h-8.271765v-12.3086073h8.271765v-3.7685551c0-19.8732983 15.111831-21.0718142 26.570444-21.204704v12.2860411c-4.02932 0-10.601098 0-10.601098 9.4025825v3.2846355h10.601098v12.3086073h-10.601098v54.577604h-15.969346zm37.424786-35.5718501h15.956809v48.7229291l23.022537-25.4596863h19.138643l-27.789019 29.4965283 27.899343 37.389683h-18.276113l-23.995391-33.397973v33.397973h-15.956809zm76.659882 56.9946941c0 8.296839 5.964998 20.359725 20.344681 20.359725 8.88356 0 14.738234-4.6361 17.779656-10.711422 1.594678-2.94865 2.329334-6.100395 2.57004-9.380016.110323-3.174312-.488935-6.473991-1.840399-9.40509-2.793194-6.318535-9.003913-11.797107-18.627143-11.797107-12.910373 0-20.226835 10.465701-20.226835 20.823586zm56.528326 33.15476h-15.964332v-9.62323c-4.262504 7.782831-13.153586 11.68929-22.533602 11.68929-21.44541 0-33.97968-16.701494-33.97968-35.574357 0-21.069307 15.222155-35.4414677 33.97968-35.4414677 12.175717 0 19.612533 6.4564399 22.533602 11.8221807v-9.7586273h15.964332z"/></g></svg>

<?xml version="1.0" encoding="UTF-8"?>
<!-- Uploaded to: SVG Repo, www.svgrepo.com, Generator: SVG Repo Mixer Tools -->
<svg width="800px" height="800px" viewBox="0 -139 512 512" version="1.1" xmlns="http://www.w3.org/2000/svg" xmlns:xlink="http://www.w3.org/1999/xlink" preserveAspectRatio="xMidYMid">
		<g fill="#1A1919">
				<path d="M49.7634813,20.9795905 C47.1809053,18.3869851 43.5978945,16.7897998 39.6036775,16.7897998 C35.6194899,16.7897998 32.06406,18.3869851 29.5140796,20.9795905 L29.4488884,20.9795905 C26.8738345,23.5546445 25.2766491,27.1476847 25.2766491,31.1168282 C25.2766491,35.1085378 26.8738345,38.6790118 29.4488884,41.2289922 L29.5140796,41.2991982 C32.06406,43.8692374 35.6194899,45.4438565 39.6036775,45.4438565 C43.5978945,45.4438565 47.1809053,43.8692374 49.7634813,41.2991982 L49.7935695,41.2289922 C52.3786529,38.6790118 53.9557794,35.1085378 53.9557794,31.1168282 C53.9557794,27.1476847 52.3786529,23.5546445 49.7935695,20.9795905 L49.7634813,20.9795905 Z M39.6036775,217.104925 C43.5978945,217.104925 47.1809053,215.477651 49.7634813,212.932685 L49.7935695,212.857465 C52.3786529,210.317514 53.9557794,206.724474 53.9557794,202.775389 C53.9557794,198.783679 52.3786529,195.208191 49.7935695,192.6206 L49.7634813,192.6206 C47.1809053,190.002921 43.5978945,188.42078 39.6036775,188.42078 C35.6194899,188.42078 32.06406,190.002921 29.5140796,192.6206 L29.4488884,192.6206 C26.8738345,195.208191 25.2766491,198.783679 25.2766491,202.775389 C25.2766491,206.724474 26.8738345,210.317514 29.4488884,212.857465 L29.5140796,212.932685 C32.06406,215.477651 35.6194899,217.104925 39.6036775,217.104925 Z M117.665171,173.695082 C121.213079,172.762346 124.425001,170.485667 126.38826,167.040561 L126.651533,166.536582 C128.396652,163.274513 128.715086,159.503451 127.78235,156.156131 C126.842092,152.58315 124.540339,149.413853 121.102755,147.440564 L120.899659,147.305167 C117.549833,145.464768 113.738653,145.063591 110.23337,146.018894 C106.670418,146.909005 103.468525,149.280963 101.517803,152.695981 C99.5420067,156.09094 99.1308004,159.992385 100.076073,163.582918 C101.051435,167.115781 103.335635,170.307645 106.753161,172.3035 L106.773219,172.3035 C110.198267,174.271774 114.069623,174.625311 117.665171,173.695082 Z M54.2992871,102.265543 C50.5382541,98.5145395 45.3480285,96.1626402 39.6036775,96.1626402 C33.8668485,96.1626402 28.6916671,98.5145395 24.9381561,102.265543 C21.197182,106.011532 18.8904151,111.179191 18.8904151,116.923542 C18.8904151,122.667893 21.197182,127.858119 24.9381561,131.646733 C28.6916671,135.37517 33.8668485,137.704503 39.6036775,137.704503 C45.3480285,137.704503 50.5382541,135.37517 54.2992871,131.646733 C58.0502907,127.858119 60.3570576,122.667893 60.3570576,116.923542 C60.3570576,111.179191 58.0502907,106.011532 54.2992871,102.265543 Z M46.0350439,77.8464095 C54.3745077,79.2204402 61.8614708,83.2146573 67.585763,88.9790672 L67.628388,88.9790672 C68.538558,89.8867298 69.4236544,90.8871646 70.2485743,91.885092 L84.5530365,83.6108194 C82.629895,77.7987697 82.5396302,71.7234478 84.0866684,66.0242291 C86.1251483,58.3943468 91.0721604,51.5643109 98.4889175,47.2842553 L98.7296236,47.1313067 C106.066145,42.9816336 114.403102,42.116596 121.927675,44.1550759 C129.550035,46.1985705 136.425204,51.1681488 140.705259,58.572369 L140.705259,58.5949352 C144.965256,65.9590379 145.827786,74.4088253 143.796828,82.0161414 C141.768378,89.6435163 136.803814,96.521192 129.394579,100.776174 L127.441349,101.929557 L127.243268,101.929557 C120.390666,105.191627 112.856064,105.703127 105.935763,103.88028 C100.254096,102.375867 95.0438112,99.2015549 90.9618367,94.700852 L76.6774334,102.952558 C78.3197512,107.295298 79.2274138,111.97653 79.2274138,116.923542 C79.2274138,121.845481 78.3197512,126.594412 76.6774334,130.959717 L90.9618367,139.188858 C95.0438112,134.617949 100.254096,131.51635 105.935763,130.006922 C113.56063,127.92331 122.010418,128.808407 129.394579,133.113536 L129.868469,133.334183 L129.868469,133.356749 C137.001895,137.681937 141.790944,144.356517 143.796828,151.896135 C145.827786,159.458318 144.965256,167.91312 140.705259,175.292267 L140.447002,175.806275 L140.416913,175.76365 C136.139365,182.877017 129.394579,187.696154 121.950241,189.734634 C114.315344,191.74804 105.863049,190.888017 98.4889175,186.645572 L98.4889175,186.587903 C91.0721604,182.300325 86.1251483,175.455245 84.0866684,167.840407 C82.5396302,162.166262 82.629895,156.09094 84.5530365,150.281398 L70.2485743,142.027184 C69.4236544,143.025111 68.538558,143.980414 67.628388,144.888076 L67.585763,144.933209 C61.8614708,150.67756 54.3745077,154.66927 46.0350439,155.998168 L46.0350439,172.526654 C51.977476,173.767795 57.2980841,176.739011 61.4653086,180.908743 L61.4878748,180.951368 C67.0742625,186.512682 70.5344129,194.26041 70.5344129,202.775389 C70.5344129,211.265294 67.0742625,218.96789 61.4878748,224.556785 L61.4653086,224.644542 C55.8388033,230.23093 48.1211635,233.69108 39.6036775,233.69108 C31.1313238,233.69108 23.3936253,230.23093 17.7796567,224.644542 L17.7570905,224.644542 L17.7570905,224.556785 C12.1656881,218.96789 8.69801565,211.265294 8.69801565,202.775389 C8.69801565,194.26041 12.1656881,186.512682 17.7570905,180.951368 L17.7570905,180.908743 L17.7796567,180.908743 C21.9443739,176.739011 27.2750113,173.767795 33.1948772,172.526654 L33.1948772,155.998168 C24.8579208,154.66927 17.3834945,150.67756 11.6692317,144.933209 L11.6090552,144.888076 C4.47312191,137.72707 0.00501471066,127.858119 0.00501471066,116.923542 C0.00501471066,106.011532 4.47312191,96.1425813 11.6090552,88.9790672 L11.6692317,88.9790672 C17.3834945,83.2146573 24.8579208,79.2204402 33.1948772,77.8464095 L33.1948772,61.3881291 C27.2750113,60.1043632 21.9443739,57.1331471 17.7796567,52.9859814 L17.7570905,52.9859814 L17.7570905,52.940849 C12.1656881,47.3293877 8.69801565,39.6343142 8.69801565,31.1168282 C8.69801565,22.6444745 12.1656881,14.8817024 17.7570905,9.29280735 L17.7796567,9.27024115 C23.3936253,3.66128727 31.1313238,0.203644266 39.6036775,0.203644266 C48.1211635,0.203644266 55.8388033,3.66128727 61.4653086,9.27024115 L61.4653086,9.29280735 L61.4878748,9.29280735 C67.0742625,14.8817024 70.5344129,22.6444745 70.5344129,31.1168282 C70.5344129,39.6343142 67.0742625,47.3293877 61.4878748,52.940849 L61.4653086,52.9859814 C57.2980841,57.1331471 51.977476,60.1043632 46.0350439,61.3881291 L46.0350439,77.8464095 Z M126.38826,66.8692078 L126.2654,66.6886783 C124.294619,63.3639251 121.14538,61.147423 117.665171,60.1921206 C114.069623,59.2368182 110.198267,59.6379951 106.753161,61.6137911 L106.773219,61.6137911 C103.335635,63.5645135 101.03639,66.7538695 100.076073,70.3293582 C99.1308004,73.877266 99.5420067,77.7987697 101.517803,81.2162951 L101.585501,81.3040525 C103.563805,84.6764454 106.71555,86.9380799 110.23337,87.8482499 C113.768741,88.8486847 117.707796,88.4249416 121.102755,86.4491456 L121.285792,86.3613882 C124.628097,84.3655334 126.854628,81.2162951 127.78235,77.7561447 C128.73013,74.1856707 128.351519,70.2842258 126.38826,66.8692078 Z">
</path>
				<path d="M189.859453,71.7033889 L205.821277,71.7033889 L205.821277,120.426318 L228.838799,94.9666317 L247.977442,94.9666317 L220.188423,124.46316 L248.092781,161.852843 L229.816668,161.852843 L205.821277,128.45487 L205.821277,161.852843 L189.859453,161.852843 L189.859453,71.7033889 Z M266.519335,128.698083 C266.519335,136.994922 272.486841,149.057808 286.864016,149.057808 C295.760113,149.057808 301.614788,144.421708 304.651195,138.346386 C306.240858,135.397736 306.973006,132.245991 307.218727,128.96637 C307.32905,125.792058 306.729793,122.492379 305.380835,119.56128 C302.582627,113.242745 296.371908,107.764173 286.746171,107.764173 C273.838305,107.764173 266.519335,118.229874 266.519335,128.587759 L266.519335,128.698083 Z M323.052676,161.852843 L307.08333,161.852843 L307.08333,152.229613 C302.833362,160.012444 293.934758,163.918903 284.549727,163.918903 C263.104317,163.918903 250.560018,147.217409 250.560018,128.344546 C250.560018,107.275239 265.787187,92.9030783 284.549727,92.9030783 C296.732967,92.9030783 304.162261,99.3595182 307.08333,104.725259 L307.08333,94.9666317 L323.052676,94.9666317 L323.052676,161.852843 Z M341.125693,107.275239 L332.853928,107.275239 L332.853928,94.9666317 L341.125693,94.9666317 L341.125693,91.1980766 C341.125693,71.3247783 356.237524,70.1262624 367.696137,69.9933726 L367.696137,82.2794137 C363.666817,82.2794137 357.095039,82.2794137 357.095039,91.6819962 L357.095039,94.9666317 L367.696137,94.9666317 L367.696137,107.275239 L357.095039,107.275239 L357.095039,161.852843 L341.125693,161.852843 L341.125693,107.275239 Z M378.550479,71.7033889 L394.507288,71.7033889 L394.507288,120.426318 L417.529825,94.9666317 L436.668468,94.9666317 L408.879449,124.46316 L436.778792,161.852843 L418.502679,161.852843 L394.507288,128.45487 L394.507288,161.852843 L378.550479,161.852843 L378.550479,71.7033889 Z M455.210361,128.698083 C455.210361,136.994922 461.175359,149.057808 475.555042,149.057808 C484.438602,149.057808 490.293276,144.421708 493.334698,138.346386 C494.929376,135.397736 495.664032,132.245991 495.904738,128.96637 C496.015061,125.792058 495.415803,122.492379 494.064339,119.56128 C491.271145,113.242745 485.060426,107.764173 475.437196,107.764173 C462.526823,107.764173 455.210361,118.229874 455.210361,128.587759 L455.210361,128.698083 Z M511.738687,161.852843 L495.774355,161.852843 L495.774355,152.229613 C491.511851,160.012444 482.620769,163.918903 473.240753,163.918903 C451.795343,163.918903 439.261073,147.217409 439.261073,128.344546 C439.261073,107.275239 454.483228,92.9030783 473.240753,92.9030783 C485.41647,92.9030783 492.853286,99.3595182 495.774355,104.725259 L495.774355,94.9666317 L511.738687,94.9666317 L511.738687,161.852843 Z">
</path>
		</g>
</svg>
